X:21
O:Möklinta, Västmanland
R:Vals
M:3/4
L:1/8
Z:Nils L
D:Det durar - Carina Normansson & Josefina Paulson, NuTrad (spår 12)
S:efter Robert Landin
T:Vals ur Robert Landins notbok (nr 21)
K:G
DG | B2 G2 B2 | G4 AB | c2 A2 d2 | B2 G2 DG | B2 G2 B2 | G4 AB | c2 A2 d2 | G4 z2 ::
G2 B2 d2 | b4 a2 | g2 f2 e2 | d2 c2 B2 | AGABcd | e4 d2 | c2 B2 A2 | G4 z2 :|

